X: 34293
T: Requiem Pour Le Pendu
R: slip jig
M: 9/8
K: Gmajor
M:7/8
dGG gGfG|edc dBAG|dGG eGdG|BAG B2B2|
dGG gGfG|edc dBAG|dGG eGdG|BAF G2G2:|
|:DGB GAAB|cBA BGGE|DGB GAAB|cBA G2G2:|
|:dGf eGeG|gfe dBdB|dgf edce|gfe d2d2|
fed B2.g2|fed B2B2|dcB AFAB|1 cBA G2G2:|2 cBA G2GE||
|:DGB GAAB|cBA BGGE|DGB GAAB|cBA G2G2:|
|:GEE AEBE|AGF EDDE|GEE AEBE|AGF D2D2|
GEE AEBE|AGF EDDE|dGG dGdG|1 cAF G2GF:|2 cAF G2G2||

